; generated by Slic3r Prusa Edition 1.41.1-rc+ on 2018-11-11 at 16:33:17

; 

; external perimeters extrusion width = 0.45mm
; perimeters extrusion width = 0.45mm
; infill extrusion width = 0.45mm
; solid infill extrusion width = 0.45mm
; top infill extrusion width = 0.40mm
; first layer extrusion width = 0.42mm

M201 X1000 Y1000 Z1000 E5000 ; sets maximum accelerations, mm/sec^2
M203 X200 Y200 Z12 E120 ; sets maximum feedrates, mm/sec
M204 P1250 R1250 T1250 ; sets acceleration (P, T) and retract acceleration (R), mm/sec^2
M205 X8.00 Y8.00 Z0.40 E1.50 ; sets the jerk limits, mm/sec
M205 S0 T0 ; sets the minimum extruding and travel feed rate, mm/sec
M107
M115 U3.4.0 ; tell printer latest fw version
M83  ; extruder relative mode
M104 S215 ; set extruder temp
M140 S60 ; set bed temp
M190 S60 ; wait for bed temp
M109 S215 ; wait for extruder temp
G80 ; mesh bed leveling
G1 Y-3.0 F1000.0 ; go outside print area
G92 E0.0
G1 X60.0 E9.0  F1000.0 ; intro line
G1 X100.0 E12.5  F1000.0 ; intro line
G92 E0.0
M221 S95
SET_VELOCITY_LIMIT SQUARE_CORNER_VELOCITY=1 ACCEL=500
SET_PRESSURE_ADVANCE ADVANCE_LOOKAHEAD_TIME=0
SET_PRESSURE_ADVANCE ADVANCE=0.000
M900 K30; Filament gcode
G21 ; set units to millimeters
G90 ; use absolute coordinates
M83 ; use relative distances for extrusion
;BEFORE_LAYER_CHANGE
G92 E0.0
;0.3

G1 E-0.80000 F2100.00000
G1 Z0.600 F10800.000
;AFTER_LAYER_CHANGE
;0.3

G1 X88.432 Y73.489
G1 Z0.300
G1 E0.80000 F2100.00000
M204 S1000
G1 F1200
G1 X89.137 Y73.000 E0.03807
G1 X89.977 Y72.822 E0.03807
G1 X150.004 Y72.822 E2.66247
G1 X150.825 Y72.984 E0.03712
G1 X151.521 Y73.442 E0.03696
G1 X151.997 Y74.131 E0.03712
G1 X152.177 Y74.944 E0.03696
G1 X152.178 Y135.022 E2.66473
G1 X152.016 Y135.825 E0.03633
G1 X151.568 Y136.511 E0.03633
G1 X150.856 Y137.003 E0.03839
G1 X150.005 Y137.178 E0.03855
G1 X89.978 Y137.178 E2.66247
G1 X89.175 Y137.016 E0.03633
G1 X88.489 Y136.568 E0.03633
G1 X87.997 Y135.856 E0.03839
G1 X87.822 Y135.005 E0.03855
G1 X87.822 Y74.978 E2.66247
G1 X87.984 Y74.175 E0.03633
G1 X88.399 Y73.539 E0.03367
; PURGING FINISHED
G1 F8640
G1 X89.137 Y73.000 E-0.21110
G1 X89.977 Y72.822 E-0.19821
G1 X91.496 Y72.822 E-0.35069
G1 E-0.04000 F2100.00000
G1 Z0.900 F10800.000
G1 X94.434 Y79.434
G1 Z0.300
G1 E0.80000 F2100.00000
G1 F1200
G1 X118.434 Y79.434 E1.06452
G1 X118.434 Y78.934 E0.02218
G1 X121.566 Y78.934 E0.13889
G1 X121.566 Y79.434 E0.02218
G1 X145.566 Y79.434 E1.06452
G1 X145.566 Y103.434 E1.06452
G1 X146.066 Y103.434 E0.02218
G1 X146.066 Y106.566 E0.13889
G1 X145.566 Y106.566 E0.02218
G1 X145.566 Y130.566 E1.06452
G1 X121.566 Y130.566 E1.06452
G1 X121.566 Y131.066 E0.02218
G1 X118.434 Y131.066 E0.13889
G1 X118.434 Y130.566 E0.02218
G1 X94.434 Y130.566 E1.06452
G1 X94.434 Y102.566 E1.24193
G1 X93.934 Y102.566 E0.02218
G1 X93.934 Y99.434 E0.13889
G1 X94.434 Y99.434 E0.02218
G1 X94.434 Y79.494 E0.88444
G1 X94.790 Y79.790 F10800.000
G1 F1200
G1 X118.790 Y79.790 E1.06452
G1 X118.790 Y79.290 E0.02218
G1 X121.210 Y79.290 E0.10734
G1 X121.210 Y79.790 E0.02218
G1 X145.210 Y79.790 E1.06452
G1 X145.210 Y103.790 E1.06452
G1 X145.710 Y103.790 E0.02218
G1 X145.710 Y106.210 E0.10734
G1 X145.210 Y106.210 E0.02218
G1 X145.210 Y130.210 E1.06452
G1 X121.210 Y130.210 E1.06452
G1 X121.210 Y130.710 E0.02218
G1 X118.790 Y130.710 E0.10734
G1 X118.790 Y130.210 E0.02218
G1 X94.790 Y130.210 E1.06452
G1 X94.790 Y102.210 E1.24193
G1 X94.290 Y102.210 E0.02218
G1 X94.290 Y99.790 E0.10734
G1 X94.790 Y99.790 E0.02218
G1 X94.790 Y79.850 E0.88444
G1 X94.793 Y79.390 F10800.000
G1 F8640
G1 X98.081 Y79.842 E-0.76000
G1 E-0.04000 F2100.00000
G1 Z0.900 F10800.000
G1 X90.566 Y75.566
G1 Z0.300
G1 E0.80000 F2100.00000
G1 F1200
G1 X149.434 Y75.566 E2.61111
G1 X149.434 Y134.434 E2.61111
G1 X90.566 Y134.434 E2.61111
G1 X90.566 Y75.626 E2.60845
G1 X90.210 Y75.210 F10800.000
G1 F1200
G1 X149.790 Y75.210 E2.64266
G1 X149.790 Y134.790 E2.64266
G1 X90.210 Y134.790 E2.64266
G1 X90.210 Y75.270 E2.64000
G1 X90.596 Y75.314 F10800.000
G1 F8640
G1 X93.501 Y75.267 E-0.76000
G1 E-0.04000 F2100.00000
G1 Z0.900 F10800.000
G1 X93.994 Y102.672
G1 Z0.300
G1 E0.80000 F2100.00000
G1 F1200
G1 X94.168 Y102.846 E0.01089
G1 X94.168 Y103.349 E0.02238
G1 X90.832 Y100.014 E0.20958
G1 X90.832 Y99.510 E0.02238
G1 X93.668 Y102.346 E0.17816
G1 X93.668 Y101.842 E0.02238
G1 X90.832 Y99.006 E0.17816
G1 X90.832 Y98.503 E0.02238
G1 X93.668 Y101.338 E0.17816
G1 X93.668 Y100.834 E0.02238
G1 X90.832 Y97.999 E0.17816
G1 X90.832 Y97.495 E0.02238
G1 X93.668 Y100.331 E0.17816
G1 X93.668 Y99.827 E0.02238
G1 X90.832 Y96.991 E0.17816
G1 X90.832 Y96.488 E0.02238
G1 X93.668 Y99.323 E0.17816
G1 X93.668 Y99.168 E0.00690
G1 X94.016 Y99.168 E0.01549
G1 X90.832 Y95.984 E0.20006
G1 X90.832 Y95.480 E0.02238
G1 X94.168 Y98.815 E0.20958
G1 X94.168 Y98.312 E0.02238
G1 X90.832 Y94.976 E0.20958
G1 X90.832 Y94.472 E0.02238
G1 X94.168 Y97.808 E0.20958
G1 X94.168 Y97.304 E0.02238
G1 X90.832 Y93.969 E0.20958
G1 X90.832 Y93.465 E0.02238
G1 X94.168 Y96.800 E0.20958
G1 X94.168 Y96.296 E0.02238
G1 X90.832 Y92.961 E0.20958
G1 X90.832 Y92.457 E0.02238
G1 X94.168 Y95.793 E0.20958
G1 X94.168 Y95.289 E0.02238
G1 X90.832 Y91.954 E0.20958
G1 X90.832 Y91.450 E0.02238
G1 X94.168 Y94.785 E0.20958
G1 X94.168 Y94.281 E0.02238
G1 X90.832 Y90.946 E0.20958
G1 X90.832 Y90.442 E0.02238
G1 X94.168 Y93.778 E0.20958
G1 X94.168 Y93.274 E0.02238
G1 X90.832 Y89.938 E0.20958
G1 X90.832 Y89.435 E0.02238
G1 X94.168 Y92.770 E0.20958
G1 X94.168 Y92.266 E0.02238
G1 X90.832 Y88.931 E0.20958
G1 X90.832 Y88.427 E0.02238
G1 X94.168 Y91.762 E0.20958
G1 X94.168 Y91.259 E0.02238
G1 X90.832 Y87.923 E0.20958
G1 X90.832 Y87.419 E0.02238
G1 X94.168 Y90.755 E0.20958
G1 X94.168 Y90.251 E0.02238
G1 X90.832 Y86.916 E0.20958
G1 X90.832 Y86.412 E0.02238
G1 X94.168 Y89.747 E0.20958
G1 X94.168 Y89.243 E0.02238
G1 X90.832 Y85.908 E0.20958
G1 X90.832 Y85.404 E0.02238
G1 X94.168 Y88.740 E0.20958
G1 X94.168 Y88.236 E0.02238
G1 X90.832 Y84.901 E0.20958
G1 X90.832 Y84.397 E0.02238
G1 X94.168 Y87.732 E0.20958
G1 X94.168 Y87.228 E0.02238
G1 X90.832 Y83.893 E0.20958
G1 X90.832 Y83.389 E0.02238
G1 X94.168 Y86.725 E0.20958
G1 X94.168 Y86.221 E0.02238
G1 X90.832 Y82.885 E0.20958
G1 X90.832 Y82.382 E0.02238
G1 X94.168 Y85.717 E0.20958
G1 X94.168 Y85.213 E0.02238
G1 X90.832 Y81.878 E0.20958
G1 X90.832 Y81.374 E0.02238
G1 X94.168 Y84.709 E0.20958
G1 X94.168 Y84.206 E0.02238
G1 X90.832 Y80.870 E0.20958
G1 X90.832 Y80.366 E0.02238
G1 X94.168 Y83.702 E0.20958
G1 X94.168 Y83.198 E0.02238
G1 X90.832 Y79.863 E0.20958
G1 X90.832 Y79.359 E0.02238
G1 X94.168 Y82.694 E0.20958
G1 X94.168 Y82.190 E0.02238
G1 X90.832 Y78.855 E0.20958
G1 X90.832 Y78.351 E0.02238
G1 X94.168 Y81.687 E0.20958
G1 X94.168 Y81.183 E0.02238
G1 X90.832 Y77.848 E0.20958
G1 X90.832 Y77.344 E0.02238
G1 X94.168 Y80.679 E0.20958
G1 X94.168 Y80.175 E0.02238
G1 X90.832 Y76.840 E0.20958
G1 X90.832 Y76.336 E0.02238
G1 X94.168 Y79.672 E0.20958
G1 X94.168 Y79.168 E0.02238
G1 X90.832 Y75.832 E0.20958
G1 X91.336 Y75.832 E0.02238
G1 X94.671 Y79.168 E0.20958
G1 X95.175 Y79.168 E0.02238
G1 X91.840 Y75.832 E0.20958
G1 X92.344 Y75.832 E0.02238
G1 X95.679 Y79.168 E0.20958
G1 X96.183 Y79.168 E0.02238
G1 X92.847 Y75.832 E0.20958
G1 X93.351 Y75.832 E0.02238
G1 X96.687 Y79.168 E0.20958
G1 X97.190 Y79.168 E0.02238
G1 X93.855 Y75.832 E0.20958
G1 X94.359 Y75.832 E0.02238
G1 X97.694 Y79.168 E0.20958
G1 X98.198 Y79.168 E0.02238
G1 X94.863 Y75.832 E0.20958
G1 X95.366 Y75.832 E0.02238
G1 X98.702 Y79.168 E0.20958
G1 X99.205 Y79.168 E0.02238
G1 X95.870 Y75.832 E0.20958
G1 X96.374 Y75.832 E0.02238
G1 X99.709 Y79.168 E0.20958
G1 X100.213 Y79.168 E0.02238
G1 X96.878 Y75.832 E0.20958
G1 X97.381 Y75.832 E0.02238
G1 X100.717 Y79.168 E0.20958
G1 X101.221 Y79.168 E0.02238
G1 X97.885 Y75.832 E0.20958
G1 X98.389 Y75.832 E0.02238
G1 X101.724 Y79.168 E0.20958
G1 X102.228 Y79.168 E0.02238
G1 X98.893 Y75.832 E0.20958
G1 X99.397 Y75.832 E0.02238
G1 X102.732 Y79.168 E0.20958
G1 X103.236 Y79.168 E0.02238
G1 X99.900 Y75.832 E0.20958
G1 X100.404 Y75.832 E0.02238
G1 X103.740 Y79.168 E0.20958
G1 X104.243 Y79.168 E0.02238
G1 X100.908 Y75.832 E0.20958
G1 X101.412 Y75.832 E0.02238
G1 X104.747 Y79.168 E0.20958
G1 X105.251 Y79.168 E0.02238
G1 X101.916 Y75.832 E0.20958
G1 X102.419 Y75.832 E0.02238
G1 X105.755 Y79.168 E0.20958
G1 X106.258 Y79.168 E0.02238
G1 X102.923 Y75.832 E0.20958
G1 X103.427 Y75.832 E0.02238
G1 X106.762 Y79.168 E0.20958
G1 X107.266 Y79.168 E0.02238
G1 X103.931 Y75.832 E0.20958
G1 X104.434 Y75.832 E0.02238
G1 X107.770 Y79.168 E0.20958
G1 X108.274 Y79.168 E0.02238
G1 X104.938 Y75.832 E0.20958
G1 X105.442 Y75.832 E0.02238
G1 X108.777 Y79.168 E0.20958
G1 X109.281 Y79.168 E0.02238
G1 X105.946 Y75.832 E0.20958
G1 X106.450 Y75.832 E0.02238
G1 X109.785 Y79.168 E0.20958
G1 X110.289 Y79.168 E0.02238
G1 X106.953 Y75.832 E0.20958
G1 X107.457 Y75.832 E0.02238
G1 X110.793 Y79.168 E0.20958
G1 X111.296 Y79.168 E0.02238
G1 X107.961 Y75.832 E0.20958
G1 X108.465 Y75.832 E0.02238
G1 X111.800 Y79.168 E0.20958
G1 X112.304 Y79.168 E0.02238
G1 X108.969 Y75.832 E0.20958
G1 X109.472 Y75.832 E0.02238
G1 X112.808 Y79.168 E0.20958
G1 X113.311 Y79.168 E0.02238
G1 X109.976 Y75.832 E0.20958
G1 X110.480 Y75.832 E0.02238
G1 X113.815 Y79.168 E0.20958
G1 X114.319 Y79.168 E0.02238
G1 X110.984 Y75.832 E0.20958
G1 X111.487 Y75.832 E0.02238
G1 X114.823 Y79.168 E0.20958
G1 X115.327 Y79.168 E0.02238
G1 X111.991 Y75.832 E0.20958
G1 X112.495 Y75.832 E0.02238
G1 X115.830 Y79.168 E0.20958
G1 X116.334 Y79.168 E0.02238
G1 X112.999 Y75.832 E0.20958
G1 X113.503 Y75.832 E0.02238
G1 X116.838 Y79.168 E0.20958
G1 X117.342 Y79.168 E0.02238
G1 X114.006 Y75.832 E0.20958
G1 X114.510 Y75.832 E0.02238
G1 X117.846 Y79.168 E0.20958
G1 X118.168 Y79.168 E0.01431
G1 X118.168 Y78.986 E0.00807
G1 X115.014 Y75.832 E0.19817
G1 X115.518 Y75.832 E0.02238
G1 X118.353 Y78.668 E0.17816
G1 X118.857 Y78.668 E0.02238
G1 X116.022 Y75.832 E0.17816
G1 X116.525 Y75.832 E0.02238
G1 X119.361 Y78.668 E0.17816
G1 X119.864 Y78.668 E0.02238
G1 X117.029 Y75.832 E0.17816
G1 X117.533 Y75.832 E0.02238
G1 X120.368 Y78.668 E0.17816
G1 X120.872 Y78.668 E0.02238
G1 X118.037 Y75.832 E0.17816
G1 X118.540 Y75.832 E0.02238
G1 X121.376 Y78.668 E0.17816
G1 X121.832 Y78.668 E0.02028
G1 X121.832 Y79.124 E0.02028
G1 X121.876 Y79.168 E0.00273
G1 X122.380 Y79.168 E0.02238
G1 X119.044 Y75.832 E0.20958
G1 X119.548 Y75.832 E0.02238
G1 X122.883 Y79.168 E0.20958
G1 X123.387 Y79.168 E0.02238
G1 X120.052 Y75.832 E0.20958
G1 X120.556 Y75.832 E0.02238
G1 X123.891 Y79.168 E0.20958
G1 X124.395 Y79.168 E0.02238
G1 X121.059 Y75.832 E0.20958
G1 X121.563 Y75.832 E0.02238
G1 X124.899 Y79.168 E0.20958
G1 X125.402 Y79.168 E0.02238
G1 X122.067 Y75.832 E0.20958
G1 X122.571 Y75.832 E0.02238
G1 X125.906 Y79.168 E0.20958
G1 X126.410 Y79.168 E0.02238
G1 X123.075 Y75.832 E0.20958
G1 X123.578 Y75.832 E0.02238
G1 X126.914 Y79.168 E0.20958
G1 X127.417 Y79.168 E0.02238
G1 X124.082 Y75.832 E0.20958
G1 X124.586 Y75.832 E0.02238
G1 X127.921 Y79.168 E0.20958
G1 X128.425 Y79.168 E0.02238
G1 X125.090 Y75.832 E0.20958
G1 X125.593 Y75.832 E0.02238
G1 X128.929 Y79.168 E0.20958
G1 X129.433 Y79.168 E0.02238
G1 X126.097 Y75.832 E0.20958
G1 X126.601 Y75.832 E0.02238
G1 X129.936 Y79.168 E0.20958
G1 X130.440 Y79.168 E0.02238
G1 X127.105 Y75.832 E0.20958
G1 X127.609 Y75.832 E0.02238
G1 X130.944 Y79.168 E0.20958
G1 X131.448 Y79.168 E0.02238
G1 X128.112 Y75.832 E0.20958
G1 X128.616 Y75.832 E0.02238
G1 X131.952 Y79.168 E0.20958
G1 X132.455 Y79.168 E0.02238
G1 X129.120 Y75.832 E0.20958
G1 X129.624 Y75.832 E0.02238
G1 X132.959 Y79.168 E0.20958
G1 X133.463 Y79.168 E0.02238
G1 X130.128 Y75.832 E0.20958
G1 X130.631 Y75.832 E0.02238
G1 X133.967 Y79.168 E0.20958
G1 X134.470 Y79.168 E0.02238
G1 X131.135 Y75.832 E0.20958
G1 X131.639 Y75.832 E0.02238
G1 X134.974 Y79.168 E0.20958
G1 X135.478 Y79.168 E0.02238
G1 X132.143 Y75.832 E0.20958
G1 X132.646 Y75.832 E0.02238
G1 X135.982 Y79.168 E0.20958
G1 X136.486 Y79.168 E0.02238
G1 X133.150 Y75.832 E0.20958
G1 X133.654 Y75.832 E0.02238
G1 X136.989 Y79.168 E0.20958
G1 X137.493 Y79.168 E0.02238
G1 X134.158 Y75.832 E0.20958
G1 X134.662 Y75.832 E0.02238
G1 X137.997 Y79.168 E0.20958
G1 X138.501 Y79.168 E0.02238
G1 X135.165 Y75.832 E0.20958
G1 X135.669 Y75.832 E0.02238
G1 X139.005 Y79.168 E0.20958
G1 X139.508 Y79.168 E0.02238
G1 X136.173 Y75.832 E0.20958
G1 X136.677 Y75.832 E0.02238
G1 X140.012 Y79.168 E0.20958
G1 X140.516 Y79.168 E0.02238
G1 X137.180 Y75.832 E0.20958
G1 X137.684 Y75.832 E0.02238
G1 X141.020 Y79.168 E0.20958
G1 X141.523 Y79.168 E0.02238
G1 X138.188 Y75.832 E0.20958
G1 X138.692 Y75.832 E0.02238
G1 X142.027 Y79.168 E0.20958
G1 X142.531 Y79.168 E0.02238
G1 X139.196 Y75.832 E0.20958
G1 X139.699 Y75.832 E0.02238
G1 X143.035 Y79.168 E0.20958
G1 X143.539 Y79.168 E0.02238
G1 X140.203 Y75.832 E0.20958
G1 X140.707 Y75.832 E0.02238
G1 X144.042 Y79.168 E0.20958
G1 X144.546 Y79.168 E0.02238
G1 X141.211 Y75.832 E0.20958
G1 X141.715 Y75.832 E0.02238
G1 X145.210 Y79.328 E0.21963
G1 F8640
G1 X142.883 Y77.000 E-0.76000
G1 E-0.04000 F2100.00000
G1 Z0.900 F10800.000
G1 X149.328 Y76.392
G1 Z0.300
G1 E0.80000 F2100.00000
G1 F1200
G1 X148.768 Y75.832 E0.03520
G1 X148.264 Y75.832 E0.02238
G1 X149.168 Y76.736 E0.05680
G1 X149.168 Y77.240 E0.02238
G1 X147.760 Y75.832 E0.08845
G1 X147.256 Y75.832 E0.02238
G1 X149.168 Y77.744 E0.12011
G1 X149.168 Y78.248 E0.02238
G1 X146.752 Y75.832 E0.15176
G1 X146.249 Y75.832 E0.02238
G1 X149.168 Y78.751 E0.18342
G1 X149.168 Y79.255 E0.02238
G1 X145.745 Y75.832 E0.21507
G1 X145.241 Y75.832 E0.02238
G1 X149.168 Y79.759 E0.24673
G1 X149.168 Y80.263 E0.02238
G1 X144.737 Y75.832 E0.27838
G1 X144.233 Y75.832 E0.02238
G1 X149.168 Y80.767 E0.31004
G1 X149.168 Y81.270 E0.02238
G1 X143.730 Y75.832 E0.34170
G1 X143.226 Y75.832 E0.02238
G1 X149.168 Y81.774 E0.37335
G1 X149.168 Y82.278 E0.02238
G1 X142.722 Y75.832 E0.40501
G1 X142.218 Y75.832 E0.02238
G1 X149.168 Y82.782 E0.43666
G1 X149.168 Y83.285 E0.02238
G1 X145.832 Y79.950 E0.20958
G1 X145.832 Y80.454 E0.02238
G1 X149.168 Y83.789 E0.20958
G1 X149.168 Y84.293 E0.02238
G1 X145.832 Y80.958 E0.20958
G1 X145.832 Y81.461 E0.02238
G1 X149.168 Y84.797 E0.20958
G1 X149.168 Y85.301 E0.02238
G1 X145.832 Y81.965 E0.20958
G1 X145.832 Y82.469 E0.02238
G1 X149.168 Y85.804 E0.20958
G1 X149.168 Y86.308 E0.02238
G1 X145.832 Y82.973 E0.20958
G1 X145.832 Y83.477 E0.02238
G1 X149.168 Y86.812 E0.20958
G1 X149.168 Y87.316 E0.02238
G1 X145.832 Y83.980 E0.20958
G1 X145.832 Y84.484 E0.02238
G1 X149.168 Y87.820 E0.20958
G1 X149.168 Y88.323 E0.02238
G1 X145.832 Y84.988 E0.20958
G1 X145.832 Y85.492 E0.02238
G1 X149.168 Y88.827 E0.20958
G1 X149.168 Y89.331 E0.02238
G1 X145.832 Y85.995 E0.20958
G1 X145.832 Y86.499 E0.02238
G1 X149.168 Y89.835 E0.20958
G1 X149.168 Y90.338 E0.02238
G1 X145.832 Y87.003 E0.20958
G1 X145.832 Y87.507 E0.02238
G1 X149.168 Y90.842 E0.20958
G1 X149.168 Y91.346 E0.02238
G1 X145.832 Y88.011 E0.20958
G1 X145.832 Y88.514 E0.02238
G1 X149.168 Y91.850 E0.20958
G1 X149.168 Y92.354 E0.02238
G1 X145.832 Y89.018 E0.20958
G1 X145.832 Y89.522 E0.02238
G1 X149.168 Y92.857 E0.20958
G1 X149.168 Y93.361 E0.02238
G1 X145.832 Y90.026 E0.20958
G1 X145.832 Y90.530 E0.02238
G1 X149.168 Y93.865 E0.20958
G1 X149.168 Y94.369 E0.02238
G1 X145.832 Y91.033 E0.20958
G1 X145.832 Y91.537 E0.02238
G1 X149.168 Y94.872 E0.20958
G1 X149.168 Y95.376 E0.02238
G1 X145.832 Y92.041 E0.20958
G1 X145.832 Y92.545 E0.02238
G1 X149.168 Y95.880 E0.20958
G1 X149.168 Y96.384 E0.02238
G1 X145.832 Y93.048 E0.20958
G1 X145.832 Y93.552 E0.02238
G1 X149.168 Y96.888 E0.20958
G1 X149.168 Y97.391 E0.02238
G1 X145.832 Y94.056 E0.20958
G1 X145.832 Y94.560 E0.02238
G1 X149.168 Y97.895 E0.20958
G1 X149.168 Y98.399 E0.02238
G1 X145.832 Y95.064 E0.20958
G1 X145.832 Y95.567 E0.02238
G1 X149.168 Y98.903 E0.20958
G1 X149.168 Y99.407 E0.02238
G1 X145.832 Y96.071 E0.20958
G1 X145.832 Y96.575 E0.02238
G1 X149.168 Y99.910 E0.20958
G1 X149.168 Y100.414 E0.02238
G1 X145.832 Y97.079 E0.20958
G1 X145.832 Y97.583 E0.02238
G1 X149.168 Y100.918 E0.20958
G1 X149.168 Y101.422 E0.02238
G1 X145.832 Y98.086 E0.20958
G1 X145.832 Y98.590 E0.02238
G1 X149.168 Y101.925 E0.20958
